wilib/img/svg/iconeInterrogacao.svg

<svg xmlns="http://www.w3.org/2000/svg" xmlns:xlink="http://www.w3.org/1999/xlink" preserveAspectRatio="none" width="59" height="59" viewBox="0 0 59 59"><defs><linearGradient id="a" gradientUnits="userSpaceOnUse" x1="36.7" y1="15.65" x2="36.7" y2="57.05"><stop offset="0%" stop-color="#1C8FD0" stop-opacity=".4"/><stop offset="100%" stop-color="#FFF" stop-opacity=".4"/></linearGradient><linearGradient id="b" gradientUnits="userSpaceOnUse" x1="36.5" y1="27.4" x2="36.5" y2="11.4"><stop offset="0%" stop-color="#1C8FD0" stop-opacity=".502"/><stop offset="100%" stop-color="#FFF" stop-opacity=".502"/></linearGradient><path fill="#E2E2E2" d="M66.7 34.8q0-12.2-8.6-20.8-8.6-8.6-20.8-8.6-12.15 0-20.75 8.6t-8.6 20.8q0 12.15 8.6 20.8 8.6 8.6 20.75 8.6 12.2 0 20.8-8.6 8.6-8.65 8.6-20.8z" id="c"/><path fill="#FFF" d="M64.65 33.85q0-11.6-8.2-19.8-8.2-8.2-19.8-8.2-11.6 0-19.8 8.2-8.2 8.2-8.2 19.8 0 11.6 8.2 19.8 8.2 8.2 19.8 8.2 11.6 0 19.8-8.2 8.2-8.2 8.2-19.8z" id="d"/><path fill="#1C8FD0" d="M61.75 33.85q0-10.4-7.3-17.7-7.35-7.3-17.7-7.3-10.4 0-17.7 7.3-7.3 7.3-7.3 17.7 0 10.35 7.3 17.7 7.3 7.3 17.7 7.3 10.35 0 17.7-7.3 7.3-7.35 7.3-17.7z" id="e"/><path fill="#FFF" d="M32.2 43q-1.65 1.6-1.65 3.9 0 2.25 1.65 3.9 1.7 1.6 3.9 1.6 2.25 0 3.9-1.6 1.65-1.65 1.65-3.9 0-2.3-1.65-3.9-1.65-1.65-3.9-1.65T32.2 43m14.05-9.9q1.1-.7 2.05-1.65 1-1.1 1.55-2.45.6-1.4.6-3.3 0-4.25-3.65-7.1-3.55-2.9-10.2-2.9-3.1 0-5.75.85-2.55.85-4.2 2.15-1.7 1.4-2.5 2.85-.85 1.45-.85 2.75 0 1.9 1.25 2.95 1.3 1.05 3.3 1.05 1.5 0 2.3-.5.75-.35 1.95-2.15.9-1.4 2.05-1.95 1.2-.6 2.4-.6 1.6 0 2.45.65.95.65.95 2.1 0 1.35-.7 2.2-.7.7-3.15 2-2.2 1.15-3.4 2.5-1.2 1.35-1.2 3.4 0 1.85.95 2.85.9 1.05 2.95 1.05 1.9 0 2.9-.5.95-.45 1.65-1.9.35-.8 1.2-1.4 1.2-.8 2.5-1.45 1.45-.75 2.6-1.5z" id="g"/><path fill="url(#a)" d="M59.6 34.05q0-9.55-6.75-16.3-6.7-6.7-16.25-6.7t-16.3 6.7q-6.7 6.75-6.7 16.3t6.7 16.25q6.75 6.75 16.3 6.75t16.25-6.75q6.75-6.7 6.75-16.25z" id="h"/><path fill="url(#b)" d="M48.4 25.75q4.85-2.35 4.85-5.65 0-3.35-4.85-5.65-4.9-2.35-11.8-2.35-6.95 0-11.8 2.35-4.9 2.3-4.9 5.65 0 3.3 4.9 5.65 4.9 2.35 11.8 2.35t11.8-2.35z" id="i"/><path id="f" stroke="#007AC0" stroke-linejoin="round" stroke-linecap="round" fill="none" d="M61.75 33.85q0 10.35-7.3 17.7-7.35 7.3-17.7 7.3-10.4 0-17.7-7.3-7.3-7.35-7.3-17.7 0-10.4 7.3-17.7 7.3-7.3 17.7-7.3 10.35 0 17.7 7.3 7.3 7.3 7.3 17.7z"/><path id="j" stroke="#007AC0" stroke-linejoin="round" stroke-linecap="round" fill="none" d="M53.25 19.9q0 3.3-4.85 5.65-4.9 2.35-11.8 2.35t-11.8-2.35q-4.9-2.35-4.9-5.65 0-3.35 4.9-5.65 4.85-2.35 11.8-2.35 6.9 0 11.8 2.35 4.85 2.3 4.85 5.65z"/></defs><use xlink:href="#c" transform="translate(-7.8 -5.4)"/><use xlink:href="#d" transform="translate(-7.8 -5.4)"/><use xlink:href="#e" transform="translate(-7.8 -5.4)"/><use xlink:href="#f" transform="translate(-7.8 -5.4)"/><use xlink:href="#g" transform="translate(-7.8 -5.4)"/><use xlink:href="#h" transform="translate(-7.8 -5.4)"/><use xlink:href="#i" transform="translate(-7.8 -5.4)"/><use xlink:href="#j" transform="translate(-7.8 -5.4)"/></svg>

<svg xmlns="http://www.w3.org/2000/svg" version="1.1" xmlns:xlink="http://www.w3.org/1999/xlink" preserveAspectRatio="none" x="0px" y="0px" width="59px" height="59px" viewBox="0 0 59 59">
<defs>
<linearGradient id="Gradient_1" gradientUnits="userSpaceOnUse" x1="36.7" y1="15.649999999999999" x2="36.7" y2="57.050000000000004" spreadMethod="pad">
<stop  offset="0%" stop-color="#1C8FD0" stop-opacity="0.4"/>

<stop  offset="100%" stop-color="#FFFFFF" stop-opacity="0.4"/>
</linearGradient>

<linearGradient id="Gradient_2" gradientUnits="userSpaceOnUse" x1="36.5" y1="27.4" x2="36.5" y2="11.399999999999999" spreadMethod="pad">
<stop  offset="0%" stop-color="#1C8FD0" stop-opacity="0.5019607843137255"/>

<stop  offset="100%" stop-color="#FFFFFF" stop-opacity="0.5019607843137255"/>
</linearGradient>

<g id="gr_interroga_0_Layer0_0_MEMBER_0_MEMBER_0_FILL">
<path fill="#E2E2E2" stroke="none" d="
M 66.7 34.8
Q 66.7 22.6 58.1 14 49.5 5.4 37.3 5.4 25.15 5.4 16.55 14 7.95 22.6 7.95 34.8 7.95 46.95 16.55 55.6 25.15 64.2 37.3 64.2 49.5 64.2 58.1 55.6 66.7 46.95 66.7 34.8 Z"/>
</g>

<g id="gr_interroga_0_Layer0_0_MEMBER_0_MEMBER_1_FILL">
<path fill="#FFFFFF" stroke="none" d="
M 64.65 33.85
Q 64.65 22.25 56.45 14.05 48.25 5.85 36.65 5.85 25.05 5.85 16.85 14.05 8.65 22.25 8.65 33.85 8.65 45.45 16.85 53.65 25.05 61.85 36.65 61.85 48.25 61.85 56.45 53.65 64.65 45.45 64.65 33.85 Z"/>
</g>

<g id="gr_interroga_0_Layer0_0_MEMBER_0_MEMBER_2_FILL">
<path fill="#1C8FD0" stroke="none" d="
M 61.75 33.85
Q 61.75 23.45 54.45 16.15 47.1 8.85 36.75 8.85 26.35 8.85 19.05 16.15 11.75 23.45 11.75 33.85 11.75 44.2 19.05 51.55 26.35 58.85 36.75 58.85 47.1 58.85 54.45 51.55 61.75 44.2 61.75 33.85 Z"/>
</g>

<g id="gr_interroga_0_Layer0_0_MEMBER_0_MEMBER_4_FILL">
<path fill="#FFFFFF" stroke="none" d="
M 32.2 43
Q 30.55 44.6 30.55 46.9 30.55 49.15 32.2 50.8 33.9 52.4 36.1 52.4 38.35 52.4 40 50.8 41.65 49.15 41.65 46.9 41.65 44.6 40 43 38.35 41.35 36.1 41.35 33.85 41.35 32.2 43
M 46.25 33.1
Q 47.35 32.4 48.3 31.45 49.3 30.35 49.85 29 50.45 27.6 50.45 25.7 50.45 21.45 46.8 18.6 43.25 15.7 36.6 15.7 33.5 15.7 30.85 16.55 28.3 17.4 26.65 18.7 24.95 20.1 24.15 21.55 23.3 23 23.3 24.3 23.3 26.2 24.55 27.25 25.85 28.3 27.85 28.3 29.35 28.3 30.15 27.8 30.9 27.45 32.1 25.65 33 24.25 34.15 23.7 35.35 23.1 36.55 23.1 38.15 23.1 39 23.75 39.95 24.4 39.95 25.85 39.95 27.2 39.25 28.05 38.55 28.75 36.1 30.05 33.9 31.2 32.7 32.55 31.5 33.9 31.5 35.95 31.5 37.8 32.45 38.8 33.35 39.85 35.4 39.85 37.3 39.85 38.3 39.35 39.25 38.9 39.95 37.45 40.3 36.65 41.15 36.05 42.35 35.25 43.65 34.6 45.1 33.85 46.25 33.1 Z"/>
</g>

<g id="gr_interroga_0_Layer0_0_MEMBER_1_MEMBER_0_FILL">
<path fill="url(#Gradient_1)" stroke="none" d="
M 59.6 34.05
Q 59.6 24.5 52.85 17.75 46.15 11.05 36.6 11.05 27.05 11.05 20.3 17.75 13.6 24.5 13.6 34.05 13.6 43.6 20.3 50.3 27.05 57.05 36.6 57.05 46.15 57.05 52.85 50.3 59.6 43.6 59.6 34.05 Z"/>
</g>

<g id="gr_interroga_0_Layer0_0_MEMBER_1_MEMBER_1_MEMBER_0_FILL">
<path fill="url(#Gradient_2)" stroke="none" d="
M 48.4 25.75
Q 53.25 23.4 53.25 20.1 53.25 16.75 48.4 14.45 43.5 12.1 36.6 12.1 29.65 12.1 24.8 14.45 19.9 16.75 19.9 20.1 19.9 23.4 24.8 25.75 29.7 28.1 36.6 28.1 43.5 28.1 48.4 25.75 Z"/>
</g>

<path id="gr_interroga_0_Layer0_0_MEMBER_0_MEMBER_3_1_STROKES" stroke="#007AC0" stroke-width="1" stroke-linejoin="round" stroke-linecap="round" fill="none" d="
M 61.75 33.85
Q 61.75 44.2 54.45 51.55 47.1 58.85 36.75 58.85 26.35 58.85 19.05 51.55 11.75 44.2 11.75 33.85 11.75 23.45 19.05 16.15 26.35 8.85 36.75 8.85 47.1 8.85 54.45 16.15 61.75 23.45 61.75 33.85 Z"/>

<path id="gr_interroga_0_Layer0_0_MEMBER_1_MEMBER_1_MEMBER_1_1_STROKES" stroke="#007AC0" stroke-width="1" stroke-linejoin="round" stroke-linecap="round" fill="none" d="
M 53.25 19.9
Q 53.25 23.2 48.4 25.55 43.5 27.9 36.6 27.9 29.7 27.9 24.8 25.55 19.9 23.2 19.9 19.9 19.9 16.55 24.8 14.25 29.65 11.9 36.6 11.9 43.5 11.9 48.4 14.25 53.25 16.55 53.25 19.9 Z"/>
</defs>

<g transform="matrix( 1, 0, 0, 1, -7.8,-5.4) ">
<g transform="matrix( 1, 0, 0, 1, 0,0) ">
<use xlink:href="#gr_interroga_0_Layer0_0_MEMBER_0_MEMBER_0_FILL"/>
</g>

<g transform="matrix( 1, 0, 0, 1, 0,0) ">
<use xlink:href="#gr_interroga_0_Layer0_0_MEMBER_0_MEMBER_1_FILL"/>
</g>

<g transform="matrix( 1, 0, 0, 1, 0,0) ">
<use xlink:href="#gr_interroga_0_Layer0_0_MEMBER_0_MEMBER_2_FILL"/>
</g>

<g transform="matrix( 1, 0, 0, 1, 0,0) ">
<use xlink:href="#gr_interroga_0_Layer0_0_MEMBER_0_MEMBER_3_1_STROKES"/>
</g>

<g transform="matrix( 1, 0, 0, 1, 0,0) ">
<use xlink:href="#gr_interroga_0_Layer0_0_MEMBER_0_MEMBER_4_FILL"/>
</g>

<g transform="matrix( 1, 0, 0, 1, 0,0) ">
<use xlink:href="#gr_interroga_0_Layer0_0_MEMBER_1_MEMBER_0_FILL"/>
</g>

<g transform="matrix( 1, 0, 0, 1, 0,0) ">
<use xlink:href="#gr_interroga_0_Layer0_0_MEMBER_1_MEMBER_1_MEMBER_0_FILL"/>
</g>

<g transform="matrix( 1, 0, 0, 1, 0,0) ">
<use xlink:href="#gr_interroga_0_Layer0_0_MEMBER_1_MEMBER_1_MEMBER_1_1_STROKES"/>
</g>
</g>
</svg>
